X:586
T:Billy Wilson
B:Slow Jam for Old Time Music
Z:Nigel Gatherer
L:1/8
M:4/4
K:A
(3efg | a2 g2  a2 eg | fedf edcA  | B2 G2  E2 GE | ABcd   e2
(3efg | a2 ga- a2 eg | fedf edcB  | ABcd   efed  | cABG   A2  :|
A2    | ABcd   efed  | cAcA B2 B2 | ABcd   efed  | cABG   A2  :|
EF    | A2 A2- AcBA  | F3 A F2 EF | A2 A2- ABcd  | e2 e2- efec |
        B3  c  B2 A2 | F3 A F2 EF | A2 AB  ceaf  | ecBG   A2  :|]
<end>
<start>
